packages/foundations/assets/icons/functional/images/technology/wifi_32.svg

<svg width="32" height="32" viewBox="0 0 32 32" fill="none" xmlns="http://www.w3.org/2000/svg">
<g clip-path="url(#clip0_187_641)">
<path fill-rule="evenodd" clip-rule="evenodd" d="M15.9843 20.5C17.6178 20.5 19 21.875 19 23.5312C19 25.1562 17.6178 26.5 15.9843 26.5C14.3508 26.5 13 25.1562 13 23.5312C13 21.875 14.3508 20.5 15.9843 20.5ZM15.9842 22.5C15.4444 22.5 15 22.9685 15 23.5312C15 24.0625 15.4444 24.5 15.9842 24.5C16.5238 24.5 17 24.0625 17 23.5312C17 22.9687 16.5238 22.5 15.9842 22.5ZM2 13.25C2 13.0313 2.0625 12.8347 2.1904 12.6583C5.431 8.1875 10.5 5.5 16 5.5C21.5 5.5 26.5685 8.1563 29.8099 12.6582C29.9375 12.8354 30 13.0313 30 13.25C30 13.7813 29.5938 14.25 29.0312 14.25C28.7188 14.25 28.3978 14.0938 28.1912 13.8099C25.3041 9.8438 20.8125 7.5 16 7.5C11.1562 7.5 6.6959 9.8438 3.8088 13.8099C3.6022 14.0938 3.2812 14.25 2.9688 14.25C2.4062 14.25 2 13.7813 2 13.25ZM5.75 16.4688C5.75 16.2813 5.8125 16.0573 5.9391 15.8762C8.2776 12.5313 12 10.5 16 10.5C19.9688 10.5 23.6912 12.5313 26.0296 15.8762C26.1562 16.0573 26.2188 16.2813 26.2188 16.4688C26.2188 17.0313 25.75 17.4688 25.25 17.4688C24.9375 17.4688 24.6136 17.3438 24.4113 17.0589C22.3948 14.2188 19.3125 12.5 16 12.5C12.6562 12.5 9.5273 14.2188 7.5643 17.0638C7.3711 17.3438 7.0312 17.4688 6.7188 17.4688C6.1875 17.4688 5.75 17.0313 5.75 16.4688ZM9.4688 19.4688C9.4688 19.2813 9.5312 19.1088 9.6516 18.9343C11.1354 16.7813 13.4375 15.4688 15.9688 15.4688C18.5312 15.4688 20.8334 16.7813 22.3172 18.9343C22.4375 19.1088 22.5 19.2813 22.5 19.4688C22.5 19.7813 22.3125 20.117 22.0338 20.3161C21.8637 20.4375 21.6875 20.5 21.5 20.5C21.1562 20.5 20.8466 20.3125 20.655 20.0321C19.5653 18.4375 17.8438 17.4688 15.9688 17.4688C14.125 17.4688 12.4034 18.4375 11.3138 20.0321C11.1222 20.3125 10.7812 20.5 10.4688 20.5C9.9375 20.5 9.4688 20.0313 9.4688 19.4688Z" fill="#1A1C1F"/>
</g>
<defs>
<clipPath id="clip0_187_641">
<rect width="32" height="32" fill="white"/>
</clipPath>
</defs>
</svg>

<svg xmlns="http://www.w3.org/2000/svg" width="32" height="32" fill="none"><g clip-path="url(#a)"><path fill="#1A1C1F" fill-rule="evenodd" d="M15.984 20.5c1.634 0 3.016 1.375 3.016 3.031 0 1.625-1.382 2.969-3.016 2.969-1.633 0-2.984-1.344-2.984-2.969 0-1.656 1.35-3.031 2.984-3.031m0 2c-.54 0-.984.468-.984 1.031 0 .532.444.969.984.969S17 24.063 17 23.531c0-.562-.476-1.031-1.016-1.031M2 13.25q0-.327.19-.592C5.431 8.188 10.5 5.5 16 5.5s10.569 2.656 13.81 7.158q.191.264.19.592c0 .531-.406 1-.969 1-.312 0-.633-.156-.84-.44C25.304 9.844 20.813 7.5 16 7.5c-4.844 0-9.304 2.344-12.191 6.31-.207.284-.528.44-.84.44-.563 0-.969-.469-.969-1m3.75 3.219c0-.188.063-.412.19-.593C8.277 12.531 12 10.5 16 10.5c3.969 0 7.691 2.031 10.03 5.376.126.181.189.405.189.593 0 .562-.469 1-.969 1-.312 0-.636-.125-.839-.41C22.395 14.219 19.312 12.5 16 12.5c-3.344 0-6.473 1.719-8.436 4.564-.193.28-.533.405-.845.405a.98.98 0 0 1-.969-1m3.719 3c0-.188.062-.36.183-.535 1.483-2.153 3.786-3.465 6.317-3.465 2.562 0 4.864 1.312 6.348 3.465.12.175.183.347.183.535 0 .312-.187.648-.466.847a.9.9 0 0 1-.534.184c-.344 0-.653-.187-.845-.468-1.09-1.594-2.811-2.563-4.686-2.563-1.844 0-3.566.968-4.655 2.563-.192.28-.533.468-.845.468-.531 0-1-.469-1-1.031" clip-rule="evenodd"/></g><defs><clipPath id="a"><path fill="#fff" d="M0 0h32v32H0z"/></clipPath></defs></svg>
